X:1
T:[ID 9-21]
T:[ID 9-21]
T:Bezeichnung standardisiert: Concerto ex D Concerto ex D
T:Urheber unbekannt Erstbeleg: 1796 (Datum in der schriftlichen Quelle) Datum in der hier transkribierten schriftlichen Quelle: vermutlich um 1800
C:Urheber unbekannt
C:Erstbeleg: 1796 (Datum in der schriftlichen Quelle)
C:Datum in der hier transkribierten schriftlichen Quelle: vermutlich um 1800
L:1/8
M:2/4
K:D
V:1 treble nm="Violino Secondo"
V:1
 d2 A2 | F/D/E/F/ G/A/B/c/ | dFGA | B2 A2 | dFGA | G2 F2 | A/A/B/B/ A/A/B/B/ | A/A/B/B/ c/c/d/d/ | %8
 eAdA | EAFA | eA dA | c/d/c/B/ A2 | d2 A2 | F/D/E/F/ G/A/B/c/ | dFGA | B2 A2 | dFGA | G2 F2 | %18
 D/D/E/E/ G/G/B/B/ | D/D/F/F/ F/F/F/F/ | F2 E2 | FD/D/DD | D4 :: df/d/ a2 | ce/c/ a2 | Bd/B/ a2 | %26
 Ac/A/ a2 | ^GEAE | B,ECE | GEAE | ^G/A/G/F/ E2 | A/A/A/A/ c/c/c/c/ | A/A/A/A/ d/d/d/d/ | E2 D2 | %34
 CA,/A,/ A,A, | A,4 | cA ed/c/ | dA dc/B/ | cA ed/c/ | dA fe/d/ | eAdA | EAFA | eAdA | %43
 c/d/c/B/ A2 | d2 A2 | F/D/E/F/ G/A/B/c/ | dFGA | B2 A2 | dFGA | G2 F2 | D/D/G/G/ G/G/B/B/ | %51
 D/D/F/F/ F/F/F/F/ | F2 E2 | FD/D/ DD | D4 :| %55

